dist/img/icons/social/youtube-footer.svg

<svg width="24" height="24" viewBox="0 0 24 24" fill="none" xmlns="http://www.w3.org/2000/svg">
<path d="M12 24C18.6274 24 24 18.6274 24 12C24 5.37258 18.6274 0 12 0C5.37258 0 0 5.37258 0 12C0 18.6274 5.37258 24 12 24Z" fill="white" fill-opacity="0.21"/>
<path d="M17.719 9.11375C17.479 8.36849 16.6848 7.92796 15.9474 7.82533C13.319 7.54585 10.6684 7.54585 8.04005 7.82533C7.309 7.92796 6.51479 8.3748 6.27479 9.11375C5.90059 11.0203 5.90059 12.9814 6.27479 14.888C6.52111 15.6316 7.31532 16.0738 8.05268 16.1764C10.6812 16.4543 13.3316 16.4543 15.9601 16.1764C16.6911 16.0738 17.4853 15.6253 17.7253 14.888C18.0974 12.981 18.0953 11.0199 17.719 9.11375ZM10.5648 14.299V9.70112L14.3085 12.0001C13.0469 12.7753 11.8216 13.5301 10.5648 14.299Z" fill="white"/>
</svg>

<svg width="24" height="24" fill="none" xmlns="http://www.w3.org/2000/svg"><path d="M12 24c6.627 0 12-5.373 12-12S18.627 0 12 0 0 5.373 0 12s5.373 12 12 12z" fill="#fff" fill-opacity=".21"/><path d="M17.719 9.114c-.24-.746-1.034-1.186-1.772-1.289a37.392 37.392 0 00-7.907 0c-.731.103-1.525.55-1.765 1.289a14.99 14.99 0 000 5.774c.246.744 1.04 1.186 1.778 1.288 2.628.278 5.279.278 7.907 0 .731-.102 1.525-.55 1.765-1.288a14.99 14.99 0 00-.006-5.774zm-7.154 5.185V9.701l3.744 2.3c-1.262.774-2.487 1.53-3.744 2.298z" fill="#fff"/></svg>
